qml/icons/uuitk/map-layers-symbolic.svg

<?xml version="1.0" encoding="UTF-8" standalone="no"?>
<!-- Created with Inkscape (http://www.inkscape.org/) -->

<svg
   xmlns:dc="http://purl.org/dc/elements/1.1/"
   xmlns:cc="http://creativecommons.org/ns#"
   xmlns:rdf="http://www.w3.org/1999/02/22-rdf-syntax-ns#"
   xmlns:svg="http://www.w3.org/2000/svg"
   xmlns="http://www.w3.org/2000/svg"
   xmlns:sodipodi="http://sodipodi.sourceforge.net/DTD/sodipodi-0.dtd"
   xmlns:inkscape="http://www.inkscape.org/namespaces/inkscape"
   width="64"
   height="64"
   id="svg1901"
   sodipodi:version="0.32"
   inkscape:version="0.92.4 5da689c313, 2019-01-14"
   sodipodi:docname="map_layer_kirigami.svg"
   version="1.1"
   inkscape:export-xdpi="67.5"
   inkscape:export-ydpi="67.5"
   inkscape:export-filename="/home/mo/Dokumente/Pure Maps/all/map_layer_kirigami.png">
  <defs
     id="defs1903" />
  <sodipodi:namedview
     id="base"
     pagecolor="#ffffff"
     bordercolor="#666666"
     borderopacity="1.0"
     inkscape:pageopacity="0.0"
     inkscape:pageshadow="2"
     inkscape:zoom="10.428213"
     inkscape:cx="-13.5126"
     inkscape:cy="35.774108"
     inkscape:document-units="px"
     inkscape:current-layer="layer1"
     inkscape:window-width="2880"
     inkscape:window-height="1506"
     inkscape:window-x="0"
     inkscape:window-y="0"
     showgrid="true"
     inkscape:window-maximized="1"
     inkscape:showpageshadow="false"
     inkscape:document-rotation="0"
     fit-margin-top="0"
     fit-margin-left="0"
     fit-margin-right="0"
     fit-margin-bottom="0"
     showguides="true"
     inkscape:guide-bbox="true">
    <inkscape:grid
       type="xygrid"
       id="grid10137"
       empspacing="4"
       visible="true"
       enabled="true"
       snapvisiblegridlinesonly="true"
       originx="-24.000001"
       originy="-24.000021" />
    <sodipodi:guide
       position="31.999999,64.999979"
       orientation="1,0"
       id="guide909"
       inkscape:locked="false" />
    <sodipodi:guide
       position="18.999999,31.999979"
       orientation="0,1"
       id="guide911"
       inkscape:locked="false" />
  </sodipodi:namedview>
  <metadata
     id="metadata1906">
    <rdf:RDF>
      <cc:Work
         rdf:about="">
        <dc:format>image/svg+xml</dc:format>
        <dc:type
           rdf:resource="http://purl.org/dc/dcmitype/StillImage" />
        <dc:title></dc:title>
      </cc:Work>
    </rdf:RDF>
  </metadata>
  <g
     inkscape:label="Taso 1"
     inkscape:groupmode="layer"
     id="layer1"
     transform="translate(-24.000001,-964.36218)">
    <path
       style="opacity:1;fill:#808080;fill-opacity:1;stroke:none;stroke-width:0;stroke-linecap:butt;stroke-linejoin:miter;stroke-miterlimit:4;stroke-dasharray:none;stroke-opacity:1;paint-order:stroke markers fill"
       d="M 31.962891 0.01953125 C 30.405266 0.01953125 28.847833 0.36317135 27.654297 1.0507812 L 1.8007812 15.945312 C -0.58628965 17.320552 -0.58628965 19.534936 1.8007812 20.910156 L 9.3105469 25.236328 L 1.8007812 29.5625 C -0.5862897 30.9378 -0.5862897 33.152044 1.8007812 34.527344 L 9.2734375 38.832031 L 1.8007812 43.136719 C -0.5862897 44.512019 -0.5862897 46.726262 1.8007812 48.101562 L 27.654297 62.996094 C 30.04137 64.371294 33.884411 64.371294 36.271484 62.996094 L 62.123047 48.101562 C 64.51012 46.726262 64.51012 44.512019 62.123047 43.136719 L 54.652344 38.832031 L 62.123047 34.527344 C 64.51012 33.152044 64.51012 30.9378 62.123047 29.5625 L 54.615234 25.236328 L 62.123047 20.910156 C 64.51012 19.534936 64.51012 17.320555 62.123047 15.945312 L 36.271484 1.0507812 C 35.077948 0.36317135 33.520515 0.01953125 31.962891 0.01953125 z M 31.962891 8 C 32.845299 8 33.728148 8.1944444 34.404297 8.5839844 L 49.048828 17.021484 C 50.401126 17.800574 50.401126 19.054894 49.048828 19.833984 L 34.404297 28.271484 C 33.051999 29.050534 30.871829 29.050534 29.519531 28.271484 L 14.875 19.833984 C 13.522703 19.054894 13.522703 17.800574 14.875 17.021484 L 29.519531 8.5839844 C 30.19568 8.1944444 31.080481 8 31.962891 8 z M 16.78125 29.541016 L 27.654297 35.804688 C 30.04137 37.179887 33.884411 37.179887 36.271484 35.804688 L 47.142578 29.541016 L 49.048828 30.638672 C 50.401126 31.417772 50.401126 32.672072 49.048828 33.451172 L 34.404297 41.888672 C 33.051999 42.667672 30.871829 42.667672 29.519531 41.888672 L 14.875 33.451172 C 13.522703 32.672072 13.522703 31.417772 14.875 30.638672 L 16.78125 29.541016 z M 16.744141 43.136719 L 27.654297 49.421875 C 30.04137 50.797075 33.884411 50.797075 36.271484 49.421875 L 47.179688 43.136719 L 49.048828 44.212891 C 50.401126 44.991991 50.401126 46.246291 49.048828 47.025391 L 34.404297 55.462891 C 33.051999 56.241891 30.871829 56.241891 29.519531 55.462891 L 14.875 47.025391 C 13.522703 46.246291 13.522703 44.991991 14.875 44.212891 L 16.744141 43.136719 z "
       transform="translate(24.000001,964.36218)"
       id="path850" />
  </g>
</svg>

<svg xmlns="http://www.w3.org/2000/svg" width="64" height="64"><path style="opacity:1;fill:gray;fill-opacity:1;stroke:none;stroke-width:0;stroke-linecap:butt;stroke-linejoin:miter;stroke-miterlimit:4;stroke-dasharray:none;stroke-opacity:1;paint-order:stroke markers fill" d="M31.963.02c-1.558 0-3.115.343-4.309 1.03L1.801 15.946c-2.387 1.376-2.387 3.59 0 4.965l7.51 4.326-7.51 4.326c-2.387 1.376-2.387 3.59 0 4.965l7.472 4.305-7.472 4.305c-2.387 1.375-2.387 3.59 0 4.965l25.853 14.894c2.387 1.375 6.23 1.375 8.617 0l25.852-14.894c2.387-1.376 2.387-3.59 0-4.965l-7.47-4.305 7.47-4.305c2.387-1.375 2.387-3.59 0-4.965l-7.508-4.326 7.508-4.326c2.387-1.375 2.387-3.59 0-4.965L36.271 1.051C35.078.363 33.521.02 31.963.02zm0 7.98c.882 0 1.765.194 2.441.584l14.645 8.437c1.352.78 1.352 2.034 0 2.813l-14.645 8.437c-1.352.78-3.532.78-4.884 0l-14.645-8.437c-1.352-.78-1.352-2.033 0-2.813L29.52 8.584c.676-.39 1.56-.584 2.443-.584zM16.78 29.541l10.873 6.264c2.387 1.375 6.23 1.375 8.617 0l10.872-6.264 1.906 1.098c1.352.779 1.352 2.033 0 2.812L34.404 41.89c-1.352.779-3.532.779-4.884 0l-14.645-8.44c-1.352-.779-1.352-2.033 0-2.812l1.906-1.098zm-.037 13.596 10.91 6.285c2.387 1.375 6.23 1.375 8.617 0l10.909-6.285 1.869 1.076c1.352.779 1.352 2.033 0 2.812l-14.645 8.438c-1.352.779-3.532.779-4.884 0l-14.645-8.438c-1.352-.779-1.352-2.033 0-2.812l1.87-1.076z"/></svg>
